assets/icons/traton/upload.svg

<svg xmlns="http://www.w3.org/2000/svg" width="32" height="32" viewBox="0 0 32 32" fill="none">
<path d="M26.2217 2H6.22168V4H26.2217V2ZM17.2217 30V9.82812L24.8076 17.4141L26.2217 16L16.2217 6L6.22168 16L7.63574 17.4141L15.2217 9.82812V30H17.2217Z" fill="#001D21" />
</svg>

<svg xmlns="http://www.w3.org/2000/svg" fill="none" viewBox="0 0 32 32"><path fill="#001d21" d="M26.2 2h-20v2h20zm-9 28V9.8l7.6 7.6 1.4-1.4-10-10-10 10 1.4 1.4 7.6-7.6V30z"/></svg>
